src/assets/close.svg

<svg width="32" height="32" viewBox="0 0 32 32" fill="none" xmlns="http://www.w3.org/2000/svg">
<path d="M25.8135 9.6379C26.6419 8.8095 26.6419 7.46638 25.8135 6.63797L25.362 6.18649C24.5336 5.35808 23.1905 5.35808 22.3621 6.18649L16 12.5486L9.63796 6.18649C8.80956 5.35809 7.46644 5.35808 6.63803 6.18649L6.18655 6.63797C5.35814 7.46638 5.35815 8.80949 6.18655 9.6379L12.5486 16L6.18655 22.362C5.35815 23.1904 5.35814 24.5336 6.18655 25.362L6.63803 25.8134C7.46644 26.6419 8.80955 26.6419 9.63796 25.8134L16 19.4514L22.3621 25.8134C23.1905 26.6418 24.5336 26.6419 25.362 25.8134L25.8135 25.362C26.6419 24.5336 26.6419 23.1904 25.8135 22.362L19.4514 16L25.8135 9.6379Z" fill="white"/>
</svg>

<svg xmlns="http://www.w3.org/2000/svg" width="32" height="32" fill="none"><path fill="#fff" d="M25.814 9.638a2.121 2.121 0 0 0 0-3l-.452-.452a2.121 2.121 0 0 0-3 0L16 12.55 9.638 6.186a2.121 2.121 0 0 0-3 0l-.451.452a2.121 2.121 0 0 0 0 3L12.549 16l-6.362 6.362a2.121 2.121 0 0 0 0 3l.451.451a2.121 2.121 0 0 0 3 0L16 19.451l6.362 6.362a2.121 2.121 0 0 0 3 0l.452-.451a2.121 2.121 0 0 0 0-3L19.45 16l6.363-6.362Z"/></svg>
